modules/feather/icons/youtube.svg

<?xml version="1.0" encoding="UTF-8"?>
<svg width="24px" height="24px" viewBox="0 0 24 24" version="1.1" xmlns="http://www.w3.org/2000/svg" xmlns:xlink="http://www.w3.org/1999/xlink">
    <g id="youtube" fill-rule="evenodd">
        <path d="M23.510653,6.17719307 L23.5246966,6.24248569 C23.852868,8.06182865 24.0121663,9.90761157 24.000572,11.7464063 C24.0071162,13.5674418 23.847838,15.385291 23.510653,17.2428069 C23.1818893,18.5563007 22.1756852,19.5936245 20.8589402,19.9660482 C20.0995534,20.1691401 18.616558,20.2937905 16.5318178,20.37344 C15.5394949,20.4113527 14.4783035,20.435679 13.4173943,20.4491901 C13.0462976,20.4539161 12.7016417,20.4569548 12.3921588,20.458644 C12.2059893,20.4596601 12.0725455,20.46 12.0005784,20.46 C11.9286113,20.46 11.7951675,20.4596601 11.608998,20.458644 C11.2995151,20.4569548 10.9548592,20.4539161 10.5837625,20.4491901 C9.52285335,20.435679 8.46166191,20.4113527 7.46933906,20.37344 C5.38459885,20.2937905 3.90160346,20.1691401 3.13666136,19.9645454 C1.86129733,19.6155827 0.860979402,18.6255774 0.476460191,17.2575143 C0.148288834,15.4381714 -0.0110095044,13.5923884 0.000590617732,11.7549411 C-0.00847566445,9.92008911 0.150812573,8.08827438 0.490503776,6.21719307 C0.81926753,4.90369934 1.82547163,3.86637553 3.14221667,3.49395176 C3.90160346,3.29085994 5.38459885,3.1662095 7.46933906,3.08655995 C8.46166191,3.04864729 9.52285335,3.02432097 10.5837625,3.01080995 C10.9548592,3.00608391 11.2995151,3.00304516 11.608998,3.001356 C11.7951675,3.00033989 11.9286113,3 12.0005784,3 C12.0723922,3 12.2056786,3.00030997 12.3916842,3.00123691 C12.7009636,3.00277817 13.04541,3.00555099 13.4162872,3.00986352 C14.4765147,3.02219174 15.5370001,3.04438795 16.5285022,3.07897523 C18.6065153,3.15146406 20.0862422,3.2650245 20.8728113,3.45776861 C22.1756852,3.82637553 23.1818893,4.86369934 23.510653,6.17719307 Z M21.5629729,6.63375621 C21.4007775,6.02901723 20.9327808,5.55322652 20.3633622,5.39145688 C19.7985881,5.25354693 18.3823967,5.14486247 16.4587771,5.07775946 C15.4845649,5.04377532 14.4389278,5.02188989 13.3930329,5.00972832 C13.0267672,5.00546942 12.6867238,5.00273204 12.3817175,5.00121207 C12.1991517,5.00030228 12.0691728,5 12.0005784,5 C11.9321373,5 11.8023159,5.00033066 11.6199139,5.00132621 C11.3151111,5.00298983 10.9752772,5.00598606 10.6092311,5.01064778 C9.56401775,5.02395891 8.51908675,5.04791248 7.54569531,5.08510185 C5.62880287,5.15833861 4.2158799,5.27709924 3.67281132,5.42223139 C3.0592887,5.59580819 2.58546772,6.08428342 2.44470413,6.6374727 C2.14077336,8.32283664 1.99210434,10.0325304 2.0005587,11.7562788 C1.98972491,13.4817015 2.13840336,15.2044323 2.42233719,16.8061021 C2.59287803,17.4049353 3.06392721,17.8711283 3.65894015,18.0339518 C4.2158799,18.1829008 5.62880287,18.3016614 7.54569531,18.3748981 C8.51908675,18.4120875 9.56401775,18.4360411 10.6092311,18.4493522 C10.9752772,18.4540139 11.3151111,18.4570102 11.6199139,18.4586738 C11.8023159,18.4596693 11.9321373,18.46 12.0005784,18.46 C12.0690195,18.46 12.1988409,18.4596693 12.3812429,18.4586738 C12.6860458,18.4570102 13.0258796,18.4540139 13.3919257,18.4493522 C14.4371391,18.4360411 15.4820701,18.4120875 16.4554615,18.3748981 C18.3723539,18.3016614 19.7852769,18.1829008 20.3283455,18.0377686 C20.9418681,17.8641918 21.4156891,17.3757166 21.5564469,16.8225592 C21.8580332,15.149886 22.0066928,13.4532267 22.0005981,11.7437212 C22.0113548,10.0305725 21.8648607,8.32007774 21.5629729,6.63375621 Z M10.2449254,15.8892646 C9.57827995,16.268383 8.75057841,15.7869074 8.75057841,15.02 L8.75057841,8.48 C8.75057841,7.71309261 9.57827995,7.23161697 10.2449254,7.61073536 L15.9949254,10.8807354 C16.6691294,11.2641522 16.6691294,12.2358478 15.9949254,12.6192646 L10.2449254,15.8892646 Z M13.4777079,11.75 L10.7505784,10.1990933 L10.7505784,13.3009067 L13.4777079,11.75 Z" id="Combined-Shape" fill="#000000" fill-rule="nonzero"></path>
    </g>
</svg>

<svg width="24" height="24" viewBox="0 0 24 24" xmlns="http://www.w3.org/2000/svg"><path d="M23.51 6.177l.015.065A29.97 29.97 0 0 1 24 11.746a29.99 29.99 0 0 1-.49 5.497 3.786 3.786 0 0 1-2.652 2.723c-.76.203-2.242.328-4.327.407a124.103 124.103 0 0 1-5.948.076c-1.061-.013-2.122-.038-3.115-.076-2.084-.08-3.567-.204-4.332-.408-1.276-.35-2.276-1.34-2.66-2.707A29.964 29.964 0 0 1 0 11.755C-.01 9.92.15 8.088.49 6.217a3.786 3.786 0 0 1 2.651-2.723c.76-.203 2.243-.328 4.327-.407a124.103 124.103 0 0 1 5.947-.077c1.06.012 2.121.034 3.113.069 2.078.072 3.557.186 4.344.379a3.78 3.78 0 0 1 2.638 2.72zm-1.947.457a1.767 1.767 0 0 0-1.2-1.243c-.564-.137-1.98-.246-3.904-.313a133.873 133.873 0 0 0-5.85-.067c-1.045.013-2.09.037-3.063.074-1.917.073-3.33.192-3.873.337-.614.174-1.088.662-1.228 1.215A28.036 28.036 0 0 0 2 11.757c-.011 1.725.137 3.447.421 5.05.17.598.642 1.064 1.237 1.227.557.149 1.97.268 3.887.34a122.166 122.166 0 0 0 5.846.075c1.045-.013 2.09-.037 3.063-.074 1.917-.073 3.33-.192 3.873-.337.614-.174 1.088-.662 1.228-1.215.302-1.673.45-3.37.445-5.08a28 28 0 0 0-.438-5.11zm-11.318 9.255a1 1 0 0 1-1.494-.869V8.48a1 1 0 0 1 1.494-.87l5.75 3.27a1 1 0 0 1 0 1.74l-5.75 3.27zm3.233-4.139L10.75 10.2v3.1l2.727-1.55z" fill-rule="nonzero"/></svg>
